out/logos/mini_blue.svg

<?xml version="1.0" encoding="utf-8"?>
<!-- Generator: Adobe Illustrator 23.0.5, SVG Export Plug-In . SVG Version: 6.00 Build 0)  -->
<svg version="1.1" id="Слой_1" xmlns="http://www.w3.org/2000/svg" xmlns:xlink="http://www.w3.org/1999/xlink" x="0px" y="0px"
	 viewBox="0 0 489.2 489.2" style="enable-background:new 0 0 489.2 489.2;" xml:space="preserve">
<style type="text/css">
	.st0{opacity:0.38;fill:#FFFFFF;}
	.st1{fill:#133758;}
	.st2{fill:#8A1133;}
</style>
<circle class="st0" cx="244.6" cy="244.6" r="244.6"/>
<title>mini_blue</title>
<g>
	<path class="st1" d="M435.7,134.8l-14,37.4c-2.8,7.7-11.2,11.5-18.9,8.7l0,0l-8.4-3.5c-5.9-1.7-10.8-8.4-10.1-12.6
		c3.1-4.9-2.1-12.6-13.3-16.8c-16.8-7-31.1-1-34.6,7.7c-1.4,3.1-5.6,14.3-5.6,14.3l-50.7-19.6l3.1-8c0,0,0.7-2.1,2.1-6.6
		c3.1-9.1-1.4-19.6-10.5-23.1c-28.3-9.8-59.4-9.1-87.4,2.1l-5.2-10.8C259.2,44,308.8,67.7,325.6,74.4l36.3,14
		c8.7,3.5,10.5,23.8,23.8,29.7c5.6,2.1,11.5,2.1,17.1,0c3.1-5.9,10.5-8.4,16.8-5.6l7.7,3.5C435,118.4,438.8,126.8,435.7,134.8
		C436,134.5,435.7,134.8,435.7,134.8z"/>
	<path class="st2" d="M273.5,167l50.3,19.2l-90.2,266.3c-3.8,9.4-14.3,14-23.8,10.5l-25.2-9.8c-9.1-3.1-14.3-12.9-11.2-22l0,0
		c0-0.3,0-0.3,0.3-0.7L273.5,167z"/>
	<path class="st1" d="M201.8,177.6l27.7-2c6.1-0.4,10.6,5.6,8.4,11.3L156,398.7c-1.2,3-4,5.1-7.2,5.3h0c-3.2,0.2-6.2-1.4-7.8-4.2
		L28.3,202.7c-3-5.3,0.5-12,6.6-12.4l27.7-2c3.2-0.2,6.3,1.4,7.9,4.3l72.3,130.1L194.6,183C195.8,179.9,198.6,177.8,201.8,177.6z"/>
</g>
</svg>

<svg width="490" height="490" viewBox="0 0 490 490" fill="none" xmlns="http://www.w3.org/2000/svg">
<g clip-path="url(#clip0_0_3)">
<path d="M244.6 489.2C379.689 489.2 489.2 379.689 489.2 244.6C489.2 109.511 379.689 0 244.6 0C109.511 0 0 109.511 0 244.6C0 379.689 109.511 489.2 244.6 489.2Z" fill="white"/>
<path d="M435.7 134.8L421.7 172.2C418.9 179.9 410.5 183.7 402.8 180.9L394.4 177.4C388.5 175.7 383.6 169 384.3 164.8C387.4 159.9 382.2 152.2 371 148C354.2 141 339.9 147 336.4 155.7C335 158.8 330.8 170 330.8 170L280.1 150.4L283.2 142.4C283.2 142.4 283.9 140.3 285.3 135.8C288.4 126.7 283.9 116.2 274.8 112.7C246.5 102.9 215.4 103.6 187.4 114.8L182.2 104C259.2 44 308.8 67.7 325.6 74.4L361.9 88.4C370.6 91.9 372.4 112.2 385.7 118.1C391.3 120.2 397.2 120.2 402.8 118.1C405.9 112.2 413.3 109.7 419.6 112.5L427.3 116C435 118.4 438.8 126.8 435.7 134.8C435.7 134.8 436 134.5 435.7 134.8Z" fill="#133758"/>
<path d="M273.5 167L323.8 186.2L233.6 452.5C229.8 461.9 219.3 466.5 209.8 463L184.6 453.2C175.5 450.1 170.3 440.3 173.4 431.2C173.4 430.9 173.4 430.9 173.7 430.5L273.5 167Z" fill="#8A1133"/>
<path d="M201.8 177.6L229.5 175.6C235.6 175.2 240.1 181.2 237.9 186.9L156 398.7C154.8 401.7 152 403.8 148.8 404C145.6 404.2 142.6 402.6 141 399.8L28.3 202.7C25.3 197.4 28.8 190.7 34.9 190.3L62.6 188.3C65.8 188.1 68.9 189.7 70.5 192.6L142.8 322.7L194.6 183C195.8 179.9 198.6 177.8 201.8 177.6Z" fill="#133758"/>
</g>
<defs>
<clipPath id="clip0_0_3">
<rect width="489.2" height="489.2" fill="white"/>
</clipPath>
</defs>
</svg>
